src/svg/white/hodl.svg

<svg width="32" height="32" viewBox="0 0 32 32" version="1.1" xmlns="http://www.w3.org/2000/svg" xmlns:xlink="http://www.w3.org/1999/xlink"><title>white/hodl</title><desc>Created with Sketch.</desc><g id="white/hodl" stroke="none" stroke-width="1" fill="none" fill-rule="evenodd"><path d="M16,32 C7.163444,32 0,24.836556 0,16 C0,7.163444 7.163444,0 16,0 C24.836556,0 32,7.163444 32,16 C32,24.836556 24.836556,32 16,32 Z M7.97287611,16.4534956 C7.45517699,16.8646681 6.99223451,17.5972124 7.01612832,18.7164381 C7.03265487,19.4903982 7.44880531,20.0200442 7.97287611,20.3804425 L7.97287611,21.7625 C7.9728795,22.6257408 8.39387485,23.4347355 9.10086283,23.9300664 L13.9538938,27.2487168 L13.9538938,10.290885 L7.97287611,12.0395133 L7.97287611,16.4534956 Z M9.27588496,16.0453097 C10.2828097,16.7820354 10.2828097,21.1607743 10.2828097,21.1607743 C10.2828097,21.1607743 9.14426991,21.0506637 8.20285398,20.5246018 C8.97940265,20.7860398 9.6020354,20.7282965 9.87323009,20.7575664 L9.89095133,20.7593584 L9.89513274,20.7593584 L9.90946903,20.7607522 L9.94650442,20.7643363 L9.95964602,20.765531 L9.97,20.765531 L9.97318584,20.765531 C9.97318584,20.765531 10.1324779,16.944115 8.97581858,16.2736947 C8.78765487,16.2085841 8.4559292,16.2472124 8.08975664,16.364292 C8.55588496,16.0496903 9.04252212,15.9433628 9.27588496,16.0453097 Z M14.3732301,22.9492257 L14.3738274,27.2554867 L17.6357301,27.2554867 L17.6357301,22.9492257 L14.3732301,22.9492257 Z M13.6339159,9.96971239 L13.9226327,10.2594248 L8.84320796,5.15929204 C8.5220354,4.83831858 7.97287611,5.06590708 7.97287611,5.5200885 L7.97287611,11.590708 L13.6339159,9.96971239 Z M14.3738274,16.0401327 L14.3738274,22.5338717 L17.6357301,22.5338717 L17.6357301,16.0401327 L14.3738274,16.0401327 Z M18.3660841,9.96971239 L24.027323,11.590708 L24.027323,5.51988938 C24.027323,5.06550885 23.4779646,4.83811947 23.156792,5.15929204 L18.1564159,10.180177 L18.3660841,9.96971239 Z M14.3738274,10.2910841 L14.3738274,15.6207965 L17.6357301,15.6207965 L17.6357301,10.2910841 L14.3738274,10.2910841 Z M24.0271239,16.4534956 L24.0271239,12.0395133 L18.0556637,10.2936726 L18.0556637,27.2554867 L22.8991372,23.9302655 C23.6061251,23.4349347 24.0271205,22.6259399 24.0271239,21.7626991 L24.0271239,20.3804425 C24.5511947,20.0198451 24.9673451,19.4903982 24.9838717,18.7164381 C25.0077655,17.5970133 24.5452212,16.8646681 24.0271239,16.4534956 Z M22.0664381,20.8270575 L22.0696239,20.8270575 L22.0799779,20.8270575 L22.0919248,20.8258628 L22.1092478,20.8242699 L22.1128319,20.8242699 L22.1484735,20.8206858 L22.1502655,20.8206858 L22.1655973,20.8190929 C22.2054204,20.8149115 22.2551991,20.8091372 22.3147345,20.8015708 L22.3215044,20.8015708 C22.6482522,20.7597566 23.0478761,20.7639381 23.6617478,20.5713938 C23.7070133,20.5571903 23.7522788,20.5424558 23.7975442,20.5271903 C22.8561283,21.0530531 21.7175885,21.1633628 21.7175885,21.1633628 C21.7175885,21.1633628 21.7175885,16.7852212 22.7245133,16.0478982 C22.9578761,15.9459513 23.4443142,16.0522788 23.9102434,16.3686726 C23.5440708,16.2513938 23.2133407,16.2129646 23.0241814,16.2780752 C21.867323,16.9469027 22.0664381,20.8270575 22.0664381,20.8270575 Z" id="Combined-Shape" fill="#FFF" fill-rule="nonzero"/></g></svg>

<svg width="32" height="32" viewBox="0 0 32 32" xmlns="http://www.w3.org/2000/svg"><path d="M16 32C7.163 32 0 24.837 0 16S7.163 0 16 0s16 7.163 16 16-7.163 16-16 16zM7.973 16.453c-.518.412-.98 1.144-.957 2.263.017.774.433 1.304.957 1.664v1.383c0 .863.42 1.672 1.128 2.167l4.853 3.319V10.29l-5.981 1.75v4.413zm1.303-.408c1.007.737 1.007 5.116 1.007 5.116s-1.139-.11-2.08-.636c.776.261 1.399.203 1.67.233l.018.001h.004l.014.002.038.003.013.002h.013s.16-3.822-.997-4.492c-.188-.065-.52-.027-.886.09.466-.314.953-.42 1.186-.319zm5.097 6.904v4.306h3.263V22.95h-3.263zm-.74-12.98l.29.29-5.08-5.1a.51.51 0 0 0-.87.361v6.07l5.66-1.62zm.74 6.071v6.494h3.263V16.04h-3.262zm3.993-6.07l5.661 1.62V5.52a.51.51 0 0 0-.87-.36l-5 5.02.21-.21zm-3.992.321v5.33h3.262v-5.33h-3.262zm9.653 6.162V12.04l-5.971-1.746v16.961l4.843-3.325a2.647 2.647 0 0 0 1.128-2.167V20.38c.524-.36.94-.89.957-1.664.024-1.119-.439-1.851-.957-2.263zm-1.96 4.374h.013l.012-.001.017-.002h.004l.035-.003h.002l.016-.002.149-.017h.007c.326-.042.726-.038 1.34-.23l.136-.045c-.942.526-2.08.636-2.08.636s0-4.378 1.007-5.115c.233-.102.72.004 1.185.32-.366-.117-.697-.155-.886-.09-1.157.669-.958 4.55-.958 4.55z" fill="#FFF"/></svg>
